dist/assets/images/payment/mastercard.svg

<svg width="50" height="34" viewBox="0 0 50 34" fill="none" xmlns="http://www.w3.org/2000/svg">
<path d="M0 4.25C0 1.90279 1.86548 0 4.16667 0H45.8333C48.1345 0 50 1.90279 50 4.25V29.75C50 32.0972 48.1345 34 45.8333 34H4.16667C1.86548 34 0 32.0972 0 29.75V4.25Z" fill="#1E4D51"/>
<path d="M30.2231 6.9349L19.4533 6.97449L19.7689 27.0643L30.5387 27.0247L30.2231 6.9349Z" fill="#FF5F00"/>
<path d="M20.1661 17.0564C20.1017 12.9704 21.8995 9.33959 24.7137 6.98417C22.5914 5.28641 19.93 4.26573 17.0444 4.2763C10.2084 4.30134 4.76794 10.0419 4.87946 17.1124C4.99097 24.1828 10.6119 29.8829 17.4479 29.8578C20.3335 29.8473 22.9623 28.8072 25.0309 27.0941C22.1433 24.7951 20.2306 21.1423 20.1661 17.0564Z" fill="#EB001B"/>
<path d="M45.112 16.8823C45.2235 23.9528 39.783 29.6934 32.947 29.7184C30.0614 29.729 27.4001 28.7083 25.2777 27.0105C28.1263 24.655 29.8898 21.0243 29.8253 16.9383C29.7609 12.8524 27.8487 9.23513 24.9605 6.9006C27.0291 5.18749 29.6579 4.14743 32.5435 4.13686C39.3796 4.11182 45.001 9.84741 45.112 16.8823Z" fill="#F79E1B"/>
</svg>

<svg width="50" height="34" fill="none" xmlns="http://www.w3.org/2000/svg"><path d="M0 4.25C0 1.903 1.865 0 4.167 0h41.666C48.135 0 50 1.903 50 4.25v25.5c0 2.347-1.865 4.25-4.167 4.25H4.167C1.865 34 0 32.097 0 29.75V4.25z" fill="#1E4D51"/><path d="M30.223 6.935l-10.77.04.316 20.09 10.77-.04-.316-20.09z" fill="#FF5F00"/><path d="M20.166 17.056C20.102 12.97 21.9 9.34 24.714 6.984c-2.123-1.698-4.784-2.718-7.67-2.708-6.836.025-12.276 5.766-12.165 12.836.112 7.07 5.733 12.77 12.569 12.746a11.902 11.902 0 007.583-2.764c-2.888-2.299-4.8-5.952-4.865-10.038z" fill="#EB001B"/><path d="M45.112 16.882c.111 7.07-5.329 12.811-12.165 12.836-2.886.011-5.547-1.01-7.67-2.707 2.85-2.356 4.613-5.987 4.548-10.073a13.163 13.163 0 00-4.864-10.037 11.903 11.903 0 017.583-2.764C39.38 4.112 45 9.847 45.111 16.882z" fill="#F79E1B"/></svg>
